X:29
T:Pipe on the Hob
R:jig
D:Arcady: Many Happy Returns
Z:id:hn-jig-29
M:6/8
K:Dmix
d^cd A2G|F2D DED|EDE cBc|E2D DFA|dcB cBA|BAG A2G|EDE cBc|E2D D3:|
|:f2d d^cd|f2d d^cd|edB c2d|ede age|1 f2d d^cd|f2d d^cd|ede age|
ed^c d2e:|2 ~f3 gfg|agf gfe|fed eag|ed^c d2A||
P:variations
|:d^cd A2G|F2D DED|~E3 cGE|EDC DFA|dcB cBA|BAG A2G|~E3 cGE|EDC D3:|
|:~f3 d^cd|fdd d^cd|edB c2d|ede age|1 fdd d^cd|~f3 d^cd|ede eag|
ed^c d2e:|2 ~f3 gfg|agf efg|fed eag|ed^c d2A||
<end>
<start>
